symbols/web/dialer_sip/materialsymbolsrounded/dialer_sip_wght500fill1_40px.svg

<svg xmlns="http://www.w3.org/2000/svg" height="40" width="40"><path d="M27.583 13.25q-.291 0-.521-.229-.229-.229-.229-.521V5.458q0-.333.229-.541.23-.209.521-.209.375 0 .563.209.187.208.187.541V12.5q0 .333-.187.542-.188.208-.563.208Zm-7.041 0q-.292 0-.521-.229-.229-.229-.229-.563 0-.333.229-.541.229-.209.562-.209h2.709V9.75h-2.75q-.292 0-.521-.229-.229-.229-.229-.521V5.458q0-.333.229-.541.229-.209.521-.209h3.541q.334 0 .542.209.208.208.208.541 0 .334-.208.563-.208.229-.542.229h-2.75v1.958h2.75q.334 0 .542.209.208.208.208.541V12.5q0 .292-.208.521-.208.229-.542.229Zm10.583 0q-.333 0-.563-.229-.229-.229-.229-.563v-7q0-.333.229-.541.23-.209.521-.209h3.542q.333 0 .542.209.208.208.208.541V9q0 .292-.208.521-.209.229-.542.229h-2.75v2.75q0 .292-.208.521-.209.229-.542.229Zm.75-5.042h1.958V6.25h-1.958Zm1.208 27.042q-5.25 0-10.354-2.479-5.104-2.479-9.125-6.5t-6.5-9.125Q4.625 12.042 4.625 6.792q0-.875.604-1.479.604-.605 1.521-.605h6.083q.792 0 1.334.459.541.458.708 1.291l1.083 5.25q.125.709 0 1.292-.125.583-.583 1l-4.167 4.083q2.084 3.417 4.771 6.084 2.688 2.666 5.979 4.541L26 24.667q.458-.5 1.104-.709.646-.208 1.354-.083l5 1.083q.75.209 1.23.771.479.563.479 1.354v6.084q0 .875-.605 1.479-.604.604-1.479.604Z"/></svg>

<svg xmlns="http://www.w3.org/2000/svg" height="40" width="40"><path d="M27.583 13.25Q27.292 13.25 27.062 13.021Q26.833 12.792 26.833 12.5V5.458Q26.833 5.125 27.062 4.917Q27.292 4.708 27.583 4.708Q27.958 4.708 28.146 4.917Q28.333 5.125 28.333 5.458V12.5Q28.333 12.833 28.146 13.042Q27.958 13.25 27.583 13.25ZM20.542 13.25Q20.25 13.25 20.021 13.021Q19.792 12.792 19.792 12.458Q19.792 12.125 20.021 11.917Q20.25 11.708 20.583 11.708H23.292V9.75H20.542Q20.25 9.75 20.021 9.521Q19.792 9.292 19.792 9V5.458Q19.792 5.125 20.021 4.917Q20.25 4.708 20.542 4.708H24.083Q24.417 4.708 24.625 4.917Q24.833 5.125 24.833 5.458Q24.833 5.792 24.625 6.021Q24.417 6.25 24.083 6.25H21.333V8.208H24.083Q24.417 8.208 24.625 8.417Q24.833 8.625 24.833 8.958V12.5Q24.833 12.792 24.625 13.021Q24.417 13.25 24.083 13.25ZM31.125 13.25Q30.792 13.25 30.562 13.021Q30.333 12.792 30.333 12.458V5.458Q30.333 5.125 30.562 4.917Q30.792 4.708 31.083 4.708H34.625Q34.958 4.708 35.167 4.917Q35.375 5.125 35.375 5.458V9Q35.375 9.292 35.167 9.521Q34.958 9.75 34.625 9.75H31.875V12.5Q31.875 12.792 31.667 13.021Q31.458 13.25 31.125 13.25ZM31.875 8.208H33.833V6.25H31.875ZM33.083 35.25Q27.833 35.25 22.729 32.771Q17.625 30.292 13.604 26.271Q9.583 22.25 7.104 17.146Q4.625 12.042 4.625 6.792Q4.625 5.917 5.229 5.313Q5.833 4.708 6.75 4.708H12.833Q13.625 4.708 14.167 5.167Q14.708 5.625 14.875 6.458L15.958 11.708Q16.083 12.417 15.958 13Q15.833 13.583 15.375 14L11.208 18.083Q13.292 21.5 15.979 24.167Q18.667 26.833 21.958 28.708L26 24.667Q26.458 24.167 27.104 23.958Q27.75 23.75 28.458 23.875L33.458 24.958Q34.208 25.167 34.688 25.729Q35.167 26.292 35.167 27.083V33.167Q35.167 34.042 34.562 34.646Q33.958 35.25 33.083 35.25Z"/></svg>
